assets/images/icons/src/user-plus.svg

<?xml version="1.0" encoding="utf-8"?>
<!-- Generated by IcoMoon.io -->
<!DOCTYPE svg PUBLIC "-//W3C//DTD SVG 1.1//EN" "http://www.w3.org/Graphics/SVG/1.1/DTD/svg11.dtd">
<svg version="1.1" xmlns="http://www.w3.org/2000/svg" xmlns:xlink="http://www.w3.org/1999/xlink" width="16" height="14" viewBox="0 0 16 14">
<path fill="#444444" d="M5.5 7q-1.242 0-2.121-0.879t-0.879-2.121 0.879-2.121 2.121-0.879 2.121 0.879 0.879 2.121-0.879 2.121-2.121 0.879zM13 8h2.75q0.102 0 0.176 0.074t0.074 0.176v1.5q0 0.102-0.074 0.176t-0.176 0.074h-2.75v2.75q0 0.102-0.074 0.176t-0.176 0.074h-1.5q-0.102 0-0.176-0.074t-0.074-0.176v-2.75h-2.75q-0.102 0-0.176-0.074t-0.074-0.176v-1.5q0-0.102 0.074-0.176t0.176-0.074h2.75v-2.75q0-0.102 0.074-0.176t0.176-0.074h1.5q0.102 0 0.176 0.074t0.074 0.176v2.75zM7.25 9.75q0 0.406 0.297 0.703t0.703 0.297h2v1.859q-0.531 0.391-1.336 0.391h-6.828q-0.945 0-1.516-0.539t-0.57-1.484q0-0.414 0.027-0.809t0.109-0.852 0.207-0.848 0.336-0.762 0.484-0.633 0.668-0.418 0.871-0.156q0.148 0 0.305 0.133 0.617 0.477 1.207 0.715t1.285 0.238 1.285-0.238 1.207-0.715q0.156-0.133 0.305-0.133 1.031 0 1.695 0.75h-1.742q-0.406 0-0.703 0.297t-0.297 0.703v1.5z"></path>
</svg>

<svg xmlns="http://www.w3.org/2000/svg" width="16" height="14" viewBox="0 0 16 14"><path fill="#444" d="M5.5 7q-1.242 0-2.121-.879T2.5 4t.879-2.121T5.5 1t2.121.879T8.5 4t-.879 2.121T5.5 7zM13 8h2.75q.102 0 .176.074T16 8.25v1.5q0 .102-.074.176T15.75 10H13v2.75q0 .102-.074.176T12.75 13h-1.5q-.102 0-.176-.074T11 12.75V10H8.25q-.102 0-.176-.074T8 9.75v-1.5q0-.102.074-.176T8.25 8H11V5.25q0-.102.074-.176T11.25 5h1.5q.102 0 .176.074T13 5.25V8zM7.25 9.75q0 .406.297.703t.703.297h2v1.859Q9.719 13 8.914 13H2.086q-.945 0-1.516-.539T0 10.977q0-.414.027-.809t.109-.852.207-.848.336-.762.484-.633.668-.418.871-.156q.148 0 .305.133.617.477 1.207.715t1.285.238 1.285-.238 1.207-.715q.156-.133.305-.133 1.031 0 1.695.75H8.249q-.406 0-.703.297t-.297.703v1.5z"/></svg>
